X: 19203
T: Island Wedding
R: polka
M: 2/4
K: Gmajor
G>E DE|GB/d/ ed|GB/d/ ed|de BA|G>E DE|GB/d/ ed|de BA|G2 G2:|
g>f ga|gf ed|ea ag|fe fd|g>f ga|gf ed|eg fd|e2 e>f|
g>f ga|gf ed|ea ag|fe fd|bg af|gf ed|eg dB|A2 A2||

